X: 2
T: Jimmy's Return
R: reel
M: 4/4
L: 1/8
K: Bmin
|:f2Bc dfed|cAce aece|f2Bc dfed|cdec dB~B2|f2Bc dfed|cAce aecA|BcdB cdeg|fedc dB~B2:||:f2ba faed|cAce aece|f2ba faed|cdec dB~B2|f2ba faed|cAce aecA|BcdB cdeg|fedc dB~B2:|


Tune 1299	Setting 1299

